assets/icons/qvision/image_search.svg

<svg xmlns="http://www.w3.org/2000/svg" height="24" viewBox="0 0 24 24" width="24"><path d="M0 0h24v24H0z" fill="none"/><path d="M0 0h24v24H0V0z" fill="none"/><path d="M18 13v7H4V6h5.02c.05-.71.22-1.38.48-2H4c-1.1 0-2 .9-2 2v14c0 1.1.9 2 2 2h14c1.1 0 2-.9 2-2v-5l-2-2zm-1.5 5h-11l2.75-3.53 1.96 2.36 2.75-3.54zm2.8-9.11c.44-.7.7-1.51.7-2.39C20 4.01 17.99 2 15.5 2S11 4.01 11 6.5s2.01 4.5 4.49 4.5c.88 0 1.7-.26 2.39-.7L21 13.42 22.42 12 19.3 8.89zM15.5 9C14.12 9 13 7.88 13 6.5S14.12 4 15.5 4 18 5.12 18 6.5 16.88 9 15.5 9z"/></svg>

<svg width="24" height="24" viewBox="0 0 24 24" fill="none" xmlns="http://www.w3.org/2000/svg">
<g clip-path="url(#clip0_147_3526)">
<path d="M18 13V20H4V6H9.02C9.07 5.29 9.24 4.62 9.5 4H4C2.9 4 2 4.9 2 6V20C2 21.1 2.9 22 4 22H18C19.1 22 20 21.1 20 20V15L18 13ZM16.5 18H5.5L8.25 14.47L10.21 16.83L12.96 13.29L16.5 18ZM19.3 8.89C19.74 8.19 20 7.38 20 6.5C20 4.01 17.99 2 15.5 2C13.01 2 11 4.01 11 6.5C11 8.99 13.01 11 15.49 11C16.37 11 17.19 10.74 17.88 10.3L21 13.42L22.42 12L19.3 8.89ZM15.5 9C14.12 9 13 7.88 13 6.5C13 5.12 14.12 4 15.5 4C16.88 4 18 5.12 18 6.5C18 7.88 16.88 9 15.5 9Z" fill="#323232"/>
</g>
<defs>
<clipPath id="clip0_147_3526">
<rect width="24" height="24" fill="white"/>
</clipPath>
</defs>
</svg>
